X: 34673
T: Road To Corofin, The
R: reel
M: 4/4
K: Dmajor
d2 Ad BAFE|DB,A,B, DEFA|d2 Ad fded|cAGB {d}BAFA|
d/d/d fd efag|f/f/f ed cAag|f/f/f ed cAGE|{G}EDCE D2 A/B/c:|
d2 Ad fdef|gbed cAGE|{G}EDFA dfed|cAGE {G}EDFA|
DEFA dfaf|gbed ceag|f/g/f ed cAGE|{G}EDCE D2 A/B/c:|

